picto/luggage.svg

<svg class="color-immutable" width="24" height="24" viewBox="0 0 24 24" fill="none" xmlns="http://www.w3.org/2000/svg"><g clip-path="url(#a)"><path d="M0 22.5v-21C0 .675.675 0 1.5 0h21c.825 0 1.5.675 1.5 1.5v21c0 .825-.675 1.5-1.5 1.5h-21C.675 24 0 23.325 0 22.5Z" fill="#2D327D"/><path d="M18.751 7.5h-3.975v-.938c0-.724-.588-1.312-1.313-1.312h-2.926c-.725 0-1.312.588-1.312 1.312V7.5H5.25A2.25 2.25 0 0 0 3 9.75v9.001A2.25 2.25 0 0 0 5.25 21h13.501A2.25 2.25 0 0 0 21 18.751V9.75a2.25 2.25 0 0 0-2.249-2.25Zm-5.025 0h-3.451V6.3h3.451v1.2Z" fill="#fff"/></g><defs><clipPath id="a"><path fill="#fff" d="M0 0h24v24H0z"/></clipPath></defs></svg>

<svg class="color-immutable" width="24" height="24" viewBox="0 0 24 24" fill="none" xmlns="http://www.w3.org/2000/svg"><path d="M0 22.5V1.5C0 0.675 0.675 0 1.5 0H22.5C23.325 0 24 0.675 24 1.5V22.5C24 23.325 23.325 24 22.5 24H1.5C0.675 24 0 23.325 0 22.5Z" fill="#2D327D"/><path d="M18.751 7.5H14.776V6.562C14.776 5.838 14.188 5.25 13.463 5.25H10.537C9.812 5.25 9.225 5.838 9.225 6.562V7.5H5.25C4.008 7.5 3 8.508 3 9.75V18.751C3 19.992 4.008 21 5.25 21H18.751C19.993 21 21 19.992 21 18.751V9.75C21 8.508 19.993 7.5 18.751 7.5ZM13.726 7.5H10.275V6.3H13.726V7.5Z" fill="white"/></svg>
